X:705
T: GUTER FREUND ICH FRAGE DICH
N: E2131C
O: Europa, Mitteleuropa, Deutschland, Westfalen, Muenster - Land
R: geistliches Lied, Curiosum
M: 4/4
L: 1/8
K: F
 | c3BA2c2 | B2A2G2F2 |
c3BA2c2 | B2A2G2F2 |
A2A2A2A2 | G4F2z2 |
A2A2A2A2 | B2B2B4 |
G2G2G2G2 | c2c2c2
B2 | A2A2c2A2 | G4F2z2

@@@ Tune index: 5389
